X: 792
T: Gel Gitme Kalmasın Gözüm Yollarda
C: Kaptanzâde Ali Rıza Bey
O: Turkey
F: http://compmusic.upf.edu/node/140
N: segah--sarki--nimsofyan--gel_gitme--kaptanzade_ali_riza_bey
N: makam= segah
N: form= sarki
N: usul= nimsofyan = 2/4
M: 2/4
L: 1/16
K: C _1/4B _1/4e ^f 
Q: 1/4=81
%%MIDI tuningsystem comma53
z2Bc dcdc  | B3A G2B2  | z2Bc dcdc  | B3^A Bcd2  | 
w:   |   |   |   | 
z2de fga_b  | ag2f fed2  | z=fed edec  | 
w:   |   |   | 
B4 z4  | z2Bc dcdc  | B3A G2B2  | z2Bc dcdc  | \
w:   |   |   |   | 
B3^A Bcd2  | 
w:   | 
z2de fga_b  | ag2f fed2  | z=fed edec  | 
w:   |   |   | 
B4 z4  | B3c d2d2  | d3e f2g2  | ag2f feed  | \
w:   |  Gel  *  git me   |  kal ma sın  gö  |  züm  *  *  yol *  lar  | 
d4 z4  | B3c d2d2  | 
w:  da    |  Gel  *  git me   | 
d3e f2g2  | ag2f feed  | d4 z4  | a3g f2g2  | \
w:  kal ma sın  gö  |  züm  *  *  yol *  lar  |  da    |  Her  ta raf  bu   | 
e2f2 d3e  | 
w:  ak şam  sel  fi  | 
c3d dccB  | B4 z4  | a3g f2g2  | e2f2 d3e  | \
w:  dan  *  boy  |  lum    |  Her  ta raf  bu   |  ak şam  sel  fi  | 
c3d dccB  | 
w:  dan  *  boy  | 
B4 z4  | g3b b2b2  | a2{c'}ba gfed  | ag2f feed  | \
w:  lum    |  Çıl *  gın ca   |  dağ *  la rı  sa *  ran   |  bu  *  *  kar  | 
g4 z4  | 
w:  da    | 
g3b b2b2  | a2{c'}ba gfed  | ag2f feed  | \
w:  Çıl *  gın ca   |  dağ *  la rı  sa *  ran   |  bu  *  *  kar  | 
d4 z4  | aa2g f2g2  | 
w:  da    |  Ge çil *  mez_ o   | 
e3=f d3e  | c3d dccB  | B4 z4  | aa2g f2g2  | \
w:  Çam lı bel  fi  |  dan  *  boy  |  lum    |  Ge çil *  mez_ o   | 
e3=f d3e  | 
w:  Çam lı bel  fi  | 
c3d dccB  | B4 z4  | |


